X: 3
T: Anderson's Hornpipe
C: James Hill
M: C
L: 1/8
R: Hornpipe
S: William &amp; Robert Lister (compiled 1840-1860)
Z: Dow (abc)
K: Fmaj
AG|FAcA GBdB|cAfc afcA|Bdgb Acfa|(3gaf (3efd (3cdB (3ABG|
FAcA GBdB|cAfc afcA|Bdgb agfe|g2f2 f2:|
|:ef|gc~c2 gcac|gccc c2ga|bgaf gefd|ecdB cABG|
FAcA GBdB|cAfc afcA|Bdgb agfe|g2f2 f2:|
